X:1
T: Irish Rover, The
C: R-55
M: C|
Z:
R: reel
% %staffwidth 15.0cm
P: 1st
K: D
"A7"F2 |"D"D2 FG| A2 de| f2 ec| "G"d2 cB| A2BG| F2 GF| "A7"E4-| EG F2|
        "D"D2 FG| A2 de| "D7"f2 ec| "G"d2 cB| "D"A2BG| "A7"F2 GF| "D"D4-| DA "A7"Bc|
        "D"d2de| f3 d| "A7"e>f ec| AA Bc| "D"d3 e| f2 d2| "A7"e3 c| AG FE|
        "D"D2 FG| A2 de| f2 dF| "G"G2 FE| "D"D2 FA| d2 f2| "A7"e4| "D"d2 :| \K: G\
P: 2nd
"D7"D2 |: "G"B2 AB| D2 GA| B3 A| G2 D2| "C"E2 G2| "D7" G2 A2| "G"G4-| G2 Bc|
          "G"d2 d2| d2 Bd| "C"e2 e2| "G"d2 BA| "Em"G2 E2| "Am"c2 B2| "D7"A4-| A2 Bc|
          "G"d2 Bd| "G7"d2 Bd| "C"e2 e2| "G"d2 BA| "Em"G2 E2| "Am"c2 B2| "D7"A4-| A2 GA|
          "G"B2 AB| D2 GA| "B7"B3 A| "Em"G2 D2| "C"E2 G2| "D7" G2 A2| "G"G4-|1 GD "D7"GA :|2 "G"G2|] \K: D\
P: 3rd
DF| "D"A2 AA| "G"d2 dB| "D"A2 FD| "G"B,2 DE| "D"F2 EF| "A7"AG E>F| "D"D4-| D2 DF|
    "D"A2 AA| "G"d2 dB| "D"A2 FD| "G"B,2 DE| "D"F2 EF| "A7"AG E>F| "D"D4-| D2 "D7"AA|
    "G"B2 GB| d2 cB| "D"A2 dF| A2 FA| "G"B2 GB| "E7"d2 cB| "A7"A4-| A2 DF|
    "D"A2 AA| "G"d2 dB| "D"A2 FD| "G"B,2 DE| "D"F2 EF| "A7"AG E>F| "D"D4-|1 D2 :|2 "D"D z|]
%
